src/assets/images/prizes/prize9.svg

<svg width="34" height="34" fill="none" xmlns="http://www.w3.org/2000/svg"><path d="M18.156 6.8h-2.312L8.5 23.8h3.4l1.241-3.4h7.718l1.241 3.4h3.4l-7.344-17ZM14.11 17.85 17 10.2l2.89 7.65h-5.78Zm12.07 13.43L28.9 34h-8.5v-8.5l3.4 3.4c4.063-2.363 6.8-6.885 6.8-11.9 0-7.497-6.103-13.6-13.6-13.6S3.4 9.503 3.4 17c0 5.015 2.737 9.401 6.8 11.764v3.808C4.199 29.937 0 23.97 0 17 0 7.65 7.65 0 17 0s17 7.65 17 17c0 6.001-3.111 11.254-7.82 14.28Z" fill="#3F68F9"/></svg>

<svg width="34" height="34" viewBox="0 0 34 34" fill="none" xmlns="http://www.w3.org/2000/svg">
<path d="M18.156 6.79999H15.844L8.5 23.8H11.9L13.141 20.4H20.859L22.1 23.8H25.5L18.156 6.79999ZM14.11 17.85L17 10.2L19.89 17.85H14.11ZM26.18 31.28L28.9 34H20.4V25.5L23.8 28.9C27.863 26.537 30.6 22.015 30.6 17C30.6 9.50299 24.497 3.4 17 3.4C9.503 3.4 3.4 9.50299 3.4 17C3.4 22.015 6.137 26.401 10.2 28.764V32.572C4.199 29.937 0 23.97 0 17C0 7.64999 7.65 0 17 0C26.35 0 34 7.64999 34 17C34 23.001 30.889 28.254 26.18 31.28Z" fill="#3F68F9"/>
</svg>
